resources/folder.svg

<svg id="Capa_1" enable-background="new 0 0 512 512" height="512" viewBox="0 0 512 512" width="512" xmlns="http://www.w3.org/2000/svg"><g><path d="m224.028 60-20-30h-204.028v452h512v-422zm257.972 392h-452v-392h157.972l60 90h234.028zm0-332h-217.973l-20-30h237.973z"/></g></svg>

<?xml version="1.0" encoding="UTF-8" standalone="no"?>
<svg
   xmlns:dc="http://purl.org/dc/elements/1.1/"
   xmlns:cc="http://creativecommons.org/ns#"
   xmlns:rdf="http://www.w3.org/1999/02/22-rdf-syntax-ns#"
   xmlns:svg="http://www.w3.org/2000/svg"
   xmlns="http://www.w3.org/2000/svg"
   xmlns:sodipodi="http://sodipodi.sourceforge.net/DTD/sodipodi-0.dtd"
   xmlns:inkscape="http://www.inkscape.org/namespaces/inkscape"
   id="Capa_1"
   enable-background="new 0 0 512 512"
   height="512"
   viewBox="0 0 512 512"
   width="512"
   version="1.1"
   sodipodi:docname="folder.svg"
   inkscape:version="0.92.4 (5da689c313, 2019-01-14)">
  <metadata
     id="metadata11">
    <rdf:RDF>
      <cc:Work
         rdf:about="">
        <dc:format>image/svg+xml</dc:format>
        <dc:type
           rdf:resource="http://purl.org/dc/dcmitype/StillImage" />
      </cc:Work>
    </rdf:RDF>
  </metadata>
  <defs
     id="defs9" />
  <sodipodi:namedview
     pagecolor="#ffffff"
     bordercolor="#666666"
     borderopacity="1"
     objecttolerance="10"
     gridtolerance="10"
     guidetolerance="10"
     inkscape:pageopacity="0"
     inkscape:pageshadow="2"
     inkscape:window-width="3760"
     inkscape:window-height="2096"
     id="namedview7"
     showgrid="false"
     inkscape:zoom="0.4609375"
     inkscape:cx="203.9322"
     inkscape:cy="256"
     inkscape:window-x="80"
     inkscape:window-y="64"
     inkscape:window-maximized="1"
     inkscape:current-layer="Capa_1" />
  <g
     id="g4"
     transform="matrix(0.82627119,0,0,0.75041248,49.898306,74.741864)"
     style="image-rendering:auto">
    <path
       d="m 224.028,60 -20,-30 H 0 V 482 H 512 V 60 Z M 482,452 H 30 V 60 h 157.972 l 60,90 H 482 Z m 0,-332 H 264.027 l -20,-30 H 482 Z"
       id="path2"
       inkscape:connector-curvature="0" />
  </g>
</svg>
